X: 340
T: Binip de Kır Atıma
C: Naci Öncel
O: Turkey
F: http://compmusic.upf.edu/node/140
N: muhayyer--turku--sofyan--binip_de--denizli
N: makam= muhayyer
N: form= turku
N: usul= sofyan = 4/4
M: 4/4
L: 1/16
K: C _2/4B ^3/4f  
Q: 1/4=72
%%MIDI tuningsystem comma53
d3/2c/c2 c2B2 B3/2A/A2 A2G2  | d3/2c/c2 c2B2 B3/2A/A2 A2G2  | \
w:  ARANAĞME  |   | 
fga2 _bag2 bagf _3/4edc2  | 
w:   | 
c3B BABG A8  | A3A AAA2 A3A AAA2  | d3/2c/c2 c2B2 B3/2A/A2 A2G2  | 
w:   |   |  ARANAĞME  | 
d3/2c/c2 c2B2 B3/2A/A2 A2G2  | fga2 _bag2 bagf _3/4edc2  | 
w:   |   | 
c3B BABG A8  | A3A AAA2 A3A AAA2  | z24  | \
w:   |   |  | 
c'c'2c'c'2 c'bb2ba a2a2a2 a2gfg2  | 
w:  Bi nip  de  kır_ a *  tı ma  *  hay la dım  diz gin    | 
g2fga2 a2a2gf ee3e2 d2_7/8edc2  | \
w:  Şa *  hi nin  pa yı na  *  i ner  mi   | 
d4d4d12z4  | de2eee3ee3 ee3eg gdd2z2  | 
w:  kuz gun    |  Var  *  mı  be nim  gi bi  sı la dan  *  bez *  gin    | 
g{a}g{a}fga2 a2a2gf ee2cd6c2  | edc2cc3cB3 B3AA8  | 
w:  Sı *  la *  *  *  nın  di ke ni  *  gül_ ol *  du   |  ba *  na  yâr_ ol du  *  *  *  ba  | 
A16A3/2B/ AGcde2  | de2eee3ee3 ee3eg gdd2z2  | 
w:  na   SAZ  |  Var  *  mı  be nim  gi bi  sı la dan  *  bez *  gin    | 
g{a}g{a}fga2 a2a2gf ee2cd6c2  | edc2cc3cB3 B3AA8  | 
w:  Sı *  la *  *  *  nın  di ke ni  *  gül_ ol *  du   |  ba *  na  yâr_ ol du  *  *  *  ba  | 
A16A3/2B/ AGcde2  | z16  | d3/2c/c2 c2B2 B3/2A/A2 A2G2  | \
w:  na   SAZ  |  |  ARANAĞME  | 
d3/2c/c2 c2B2 B3/2A/A2 A2G2  | 
w:   | 
fga2 _bag2 bagf _3/4edc2  | c3B BABG A8  | \
w:   |   | 
A3A AAA2 A3A AAA2  | 
w:   | 
d3/2c/c2 c2B2 B3/2A/A2 A2G2  | d3/2c/c2 c2B2 B3/2A/A2 A2G2  | \
w:  ARANAĞME  |   | 
fga2 _bag2 bagf _3/4edc2  | 
w:   | 
c3B BABG A8  | A3A AAA2 A3A AAA2  | z24  | \
w:   |   |  | 
c'c'2c'c'2 c'bb2ba a2a2a2 a2gfg2  | 
w:  Bi nip  de  kır_ a *  tı ma  *  hay la dım  diz gin    | 
g2fga2 a2a2gf ee3e2 d2_7/8edc2  | \
w:  Şa *  hi nin  pa yı na  *  i ner  mi   | 
d4d4d12z4  | de2eee3ee3 ee3eg gdd2z2  | 
w:  kuz gun    |  Var  *  mı  be nim  gi bi  sı la dan  *  bez *  gin    | 
g{a}g{a}fga2 a2a2gf ee2cd6c2  | edc2cc3cB3 B3AA8  | 
w:  Sı *  la *  *  *  nın  di ke ni  *  gül_ ol *  du   |  ba *  na  yâr_ ol du  *  *  *  ba  | 
A16|
w:  na    | 


